!!!OTL: 243. Abendlied im Sommer.
!!!COM: Volksweise
!!!ARE: Europa, Mitteleuropa, Deutschland
!!!SCT: B0243
!!!TXL: @@DE
!!!YEM: Copyright 1995, estate of Helmut Schaffrath.
**kern	**text
*ICvox	*
*Ivox	*
*clefG2	*
*M3/4	*
*k[f#c#g#]	*
*A:	*
!LO:TX:a:t=Mäßig.	!
{8e	Kein
8e	ſchö-
8e	-ner
=1	=1
4a	Land
4cc#	in
8b/	die-
8a	-ſer
=2	=2
4b	Ʒeit,
8r}	.
{8e	als
8e	hier
8e	das
=3	=3
4a	unſ-
4cc#	-re
8b/	weit
8a	und
=4	=4
4b	breit,
8r}	.
{8cc#	wo
8a	wir
8b	uns
=5	=5
8cc#L	fin-
8eeJ	.
8dd	-den
8cc#	wohl
8b/	un-
8a	-ter
=6	=6
8bL	Lin-
8ddJ	.
4cc#}	-den
{4b	ʒur
=7	=7
2a	A-
4g#	-bend-
=8	=8
4a	-ʒeit!
8r}	.
{8cc#	wo
8a	wir
8b	uns
=9	=9
8cc#L	fin-
8eeJ	.
8dd	-den
8cc#	wohl
8b	un-
8a	-ter
=10	=10
8bL	Lin-
8ddJ	.
4cc#}	-den
{4b	ʒur
=11	=11
2a	A-
4g#	-bend-
=12	=12
4a	-ʒeit!
8r}	.
==	==
!!!AGN: Tageszeiten - Lied, Abend, Sommer
!!!GTL: Tageszeitenlieder
!!!ONB: ESAC (Essen Associative Code) Database: BOEHME
!!!AMT: simple triple
!!!AIN: vox
!!!EED: Helmut Schaffrath
!!!EEV: 1.0
!!@@COMMENT:"Preußiſches Soldaten-Liederbuch" 1884 Nr. 108."
!!@@END:
!!!URL-scan: https://archive.org/details/BoehmeVtLieder1895/page/n215/mode/2up
!!!ENC: Anna Maria Matuszewska
!!!EEV: 2024/03/07
*-	*-
